material/.icons/material/car-windshield-outline.svg

<svg xmlns="http://www.w3.org/2000/svg" viewBox="0 0 24 24"><path d="M22.63 15.5l-2.42-9.65a1 1 0 00-1.07-.75c-1.34.14-5 .4-7.14.4s-5.8-.26-7.14-.4a1 1 0 00-1.07.75L1.37 15.5a1.5 1.5 0 001.18 1.86A61.5 61.5 0 0012 18a61.5 61.5 0 009.45-.64 1.5 1.5 0 001.18-1.86M12 16a63.33 63.33 0 01-8.56-.5L5.5 7.18c1.5.14 4.66.32 6.5.32s5-.18 6.5-.32l2.06 8.32A63.33 63.33 0 0112 16z"/></svg>

<?xml version="1.0" encoding="UTF-8"?><!DOCTYPE svg PUBLIC "-//W3C//DTD SVG 1.1//EN" "http://www.w3.org/Graphics/SVG/1.1/DTD/svg11.dtd"><svg xmlns="http://www.w3.org/2000/svg" xmlns:xlink="http://www.w3.org/1999/xlink" version="1.1" id="mdi-car-windshield-outline" width="24" height="24" viewBox="0 0 24 24"><path d="M22.63 15.5L20.21 5.85A1 1 0 0 0 19.14 5.1C17.8 5.24 14.14 5.5 12 5.5S6.2 5.24 4.86 5.1A1 1 0 0 0 3.79 5.85L1.37 15.5A1.5 1.5 0 0 0 2.55 17.36A61.5 61.5 0 0 0 12 18A61.5 61.5 0 0 0 21.45 17.36A1.5 1.5 0 0 0 22.63 15.5M12 16A63.33 63.33 0 0 1 3.44 15.5L5.5 7.18C7 7.32 10.16 7.5 12 7.5S17 7.32 18.5 7.18L20.56 15.5A63.33 63.33 0 0 1 12 16Z" /></svg>
